X: 21080
T: Jutland
R: reel
M: 4/4
K: Eminor
BA|B2 E2 EBBA|GFEG G3A|GFEF F3B|B4 B2 BA|
B2 E2 EBBA|GFEG G3A|GFEF F4|F4 F2||
BA|B2 E2 EBBA|GFEG G3A|GFEF F3B|B4 B2 BA|
B2 E2 EBBA|GFEG G3A|GFEF F2 F2|E2 D2 E4|E4 E2||
AB|c3B B2 AG|B3G E2 EA/B/|c3B B2 AG|
B2 B2 A2 G2|F4 F4|F4 F2 BA||
B2 E2 EBBA|GFEG G3A|GFEF F2 F2|E2 D2 E4|E4 E2||
ab|c'3b b2 ag|b3g e2 ea/b/|c'3b b2 ag|b2 b2 a2 g2|
f4 f4|f4 f2 BA|B2 E2 EBBA|GFEG G3A|
GFEF F2 F2|E2 D2 E4|E4 E4||

